papirus/16x16/mimetypes/text-x-install.svg

<?xml version="1.0" encoding="UTF-8" standalone="no"?>
<svg id="svg2" xmlns:rdf="http://www.w3.org/1999/02/22-rdf-syntax-ns#" xmlns="http://www.w3.org/2000/svg" height="16px" width="16px" version="1.1" xmlns:cc="http://creativecommons.org/ns#" viewBox="0 0 16 16" xmlns:dc="http://purl.org/dc/elements/1.1/">
 <metadata id="metadata17">
  <rdf:RDF>
   <cc:Work rdf:about="">
    <dc:format>image/svg+xml</dc:format>
    <dc:type rdf:resource="http://purl.org/dc/dcmitype/StillImage"/>
   </cc:Work>
  </rdf:RDF>
 </metadata>
 <path id="path5" fill="#ccc" d="m2.75 1c-0.4172 0-0.75 0.3328-0.75 0.75v13.5c0 0.417 0.3328 0.75 0.75 0.75h10.5c0.418 0 0.75-0.332 0.75-0.75v-9.25l-4.125-0.875-0.875-4.125z"/>
 <path id="path7" fill="#f8f8f0" d="m9 1v4.1667c0 0.4584 0.3749 0.8333 0.8333 0.8333h4.1667z"/>
 <path id="path9" fill-opacity=".50196" d="m7.5 7c-0.1667 0-0.5052 0.1225-0.5 0.2713v3.7287h-1.5l2.5833 4 2.4167-4h-1.5v-3.7287c0-0.1531-0.3333-0.2713-0.5-0.2713z"/>
 <path id="path11" fill-opacity=".2" fill="#fff" d="m2.75 1c-0.4172 0-0.75 0.3328-0.75 0.75v0.6c0-0.4172 0.3328-0.75 0.75-0.75h6.25v-0.6z"/>
</svg>

<?xml version="1.0" encoding="UTF-8" standalone="no"?>
<svg
   xmlns:dc="http://purl.org/dc/elements/1.1/"
   xmlns:cc="http://creativecommons.org/ns#"
   xmlns:rdf="http://www.w3.org/1999/02/22-rdf-syntax-ns#"
   xmlns:svg="http://www.w3.org/2000/svg"
   xmlns="http://www.w3.org/2000/svg"
   viewBox="0 0 16 16"
   version="1.1"
   width="16px"
   height="16px"
   id="svg2">
  <defs
     id="defs10" />
  <metadata
     id="metadata17">
    <rdf:RDF>
      <cc:Work
         rdf:about="">
        <dc:format>image/svg+xml</dc:format>
        <dc:type
           rdf:resource="http://purl.org/dc/dcmitype/StillImage" />
      </cc:Work>
    </rdf:RDF>
  </metadata>
  <path
     style="fill:#cccccc"
     d="M 2.75,1 C 2.3328,1 2,1.3328 2,1.75 l 0,13.5 C 2,15.667 2.3328,16 2.75,16 l 10.5,0 C 13.668,16 14,15.668 14,15.25 L 14,6 9.875,5.125 9,1 Z"
     id="path5" />
  <path
     style="fill:#f8f8f0"
     d="M 9,1 9,5.1666667 C 9,5.6250667 9.3749333,6 9.833333,6 L 14,6 Z"
     id="path7" />
  <path
     style="fill-opacity:0.50196054"
     d="M 7.5,7 C 7.3333,7 6.9948,7.1225 7,7.2713 L 7,11 5.5,11 8.0833,15 10.5,11 9,11 9,7.2713 C 9,7.1182 8.6667,7 8.5,7 Z"
     id="path9" />
  <path
     style="fill:#ffffff;fill-opacity:0.2"
     d="M 2.75,1 C 2.3328,1 2,1.3328 2,1.75 l 0,0.6 C 2,1.9328 2.3328,1.6 2.75,1.6 L 9,1.6 9,1 Z"
     id="path11" />
</svg>
